X: 38
T:Old Woman Tossed Up - Kirtlington
S:OY(AB)4
N:Tune as played for Grand Union Morris
N:www.grandunionmorris.co.uk
M:6/8
L:1/8
K:G
"A" D | GGG GBd | eed B2 G | ccc Adc | BGG G2 :||
"B" d | efg efg | efg gfe | d2 d d2 d | eed B2 G | GGG GBd | eed B2 G |
ccc Adc | BGG G2 :||
